X:279
T:Flirtation Jig
M:6/8
L:1/8
C:Frederick E. Wilson copyright 2005
R:Jig
K:F#Dor
E| F2B cBA|GFE C2C|F2G AGA|c2c edB|c2 A A/2B/2cA|GFE C2C|F2AG2E|1F4zE:|2
F4zB||:
c2d edB|cBA G2B|c2d edB|c3 efg|fc'b a/2b/2c'a|gfe c2c|f2c c2B|1c4zB:|2c4
cB||:
ABc A/2G/2FF|GEC C2E|F2c c2B|(c3 c)ed|cde c/2B/2AA|BGE E2E|1F/2G/2AF GEC
|F4cB:|2F2AG2E|F4zG||:
FAc edB|cBA GFE|FAc edB|c2c efg|fc'b a/2b/2c'a|g/2a/2bg e2e|agf e2c|B4 A
G:||
